svg/furkot/freepik/swimming.svg

<svg height="512" viewBox="0 0 512 512" width="512" xmlns="http://www.w3.org/2000/svg"><path d="m65.046 159.641 118.479 15.232c4.135 10.499 24.969 62.177 28.886 71.424 0 0 0 0-.055 0-34.325 16.972-68.65 33.89-102.975 50.862 11.913-2.176 23.989-3.264 36.12-3.264 15.884 0 31.442 1.904 46.292 5.658 29.974 7.616 57.064 19.8 83.229 31.605 23.337 10.499 45.422 20.454 67.453 26.166 3.101.816 6.093 1.523 9.085 2.121-26.111-53.473-96.339-197.573-110.21-229.287-6.528-14.96-15.504-20.508-28.232-22.14l-139.15-17.897c-19.202-2.448-36.773 11.097-39.275 30.3-2.394 19.202 11.151 36.773 30.353 39.22z"/><path d="m9.071 409.545c3.862 2.775 8.268 4.08 12.675 4.08.979 0 1.903-.055 2.828-.217 5.766-.762 11.206-3.808 14.851-8.867 14.089-19.638 35.902-35.087 61.306-43.573 14.579-4.841 29.81-7.289 44.77-7.289 54.234 0 100.745 32.421 149.702 51.079 26.22 10.009 53.582 17.407 83.338 17.407 12.511 0 25.458-1.305 38.894-4.297 31.606-6.963 58.696-21.976 78.279-43.029 4.678-5.059 8.921-10.39 12.675-16.102 6.636-10.009 3.862-23.5-6.147-30.136-3.7-2.448-7.834-3.59-11.968-3.59-7.072 0-13.98 3.427-18.169 9.737-1.686 2.556-3.536 5.004-5.548 7.398-13.6 16.21-33.999 27.852-58.478 33.237-22.575 4.951-47.49 3.481-69.738-2.284-23.391-6.093-46.021-16.265-70.065-27.091-25.567-11.478-51.95-23.391-80.562-30.68-13.6-3.481-27.852-5.168-42.268-5.168-19.637 0-39.601 3.209-58.586 9.52-16.592 5.549-31.986 13.273-45.803 23.01-14.579 10.282-27.036 22.521-37.045 36.447-.653.925-1.197 1.849-1.686 2.829-4.733 9.41-2.122 21.215 6.745 27.579zm470.704-177.718c0 42.391-34.364 76.755-76.755 76.755s-76.756-34.364-76.756-76.755 34.365-76.755 76.756-76.755 76.755 34.364 76.755 76.755z"/></svg>

<svg width="512" height="512" viewBox="0 0 512 512" xmlns="http://www.w3.org/2000/svg"><path d="M 65.046 159.641 L 183.525 174.873 C 187.66 185.372 208.494 237.05 212.411 246.297 C 212.411 246.297 212.411 246.297 212.356 246.297 C 178.031 263.269 143.706 280.187 109.381 297.159 C 121.294 294.983 133.37 293.895 145.501 293.895 C 161.385 293.895 176.943 295.799 191.793 299.553 C 221.767 307.169 248.857 319.353 275.022 331.158 C 298.359 341.657 320.444 351.612 342.475 357.324 C 345.576 358.14 348.568 358.847 351.56 359.445 C 325.449 305.972 255.221 161.872 241.35 130.158 C 234.822 115.198 225.846 109.65 213.118 108.018 L 73.968 90.121 C 54.766 87.673 37.195 101.218 34.693 120.421 C 32.299 139.623 45.844 157.194 65.046 159.641 Z"/><path d="M9.071 409.545C12.933 412.32 17.339 413.625 21.746 413.625 22.725 413.625 23.649 413.57 24.574 413.408 30.34 412.646 35.78 409.6 39.425 404.541 53.514 384.903 75.327 369.454 100.731 360.968 115.31 356.127 130.541 353.679 145.501 353.679 199.735 353.679 246.246 386.1 295.203 404.758 321.423 414.767 348.785 422.165 378.541 422.165 391.052 422.165 403.999 420.86 417.435 417.868 449.041 410.905 476.131 395.892 495.714 374.839 500.392 369.78 504.635 364.449 508.389 358.737 515.025 348.728 512.251 335.237 502.242 328.601 498.542 326.153 494.408 325.011 490.274 325.011 483.202 325.011 476.294 328.438 472.105 334.748 470.419 337.304 468.569 339.752 466.557 342.146 452.957 358.356 432.558 369.998 408.079 375.383 385.504 380.334 360.589 378.864 338.341 373.099 314.95 367.006 292.32 356.834 268.276 346.008 242.709 334.53 216.326 322.617 187.714 315.328 174.114 311.847 159.862 310.16 145.446 310.16 125.809 310.16 105.845 313.369 86.86 319.68 70.268 325.229 54.874 332.953 41.057 342.69 26.478 352.972 14.021 365.211 4.012 379.137 3.359 380.062 2.815 380.986 2.326 381.966-2.407 391.376.204 403.181 9.071 409.545zM479.775 231.827C479.775 274.218 445.411 308.582 403.02 308.582 360.629 308.582 326.264 274.218 326.264 231.827 326.264 189.436 360.629 155.072 403.02 155.072 445.411 155.072 479.775 189.436 479.775 231.827z"/></svg>
